X:1
T:Brighter Are the Sunbeams
T:Fred C. Pullin
T:Brighter Are the Sunbeams
T:Public Domain
T:Public Domain
T:Public Domain
C:Fred C. Pullin
Z:Public Domain
%%score ( 1 2 ) ( 3 4 )
L:1/8
M:4/4
K:Ab
V:1 treble 
V:2 treble 
V:3 bass 
V:4 bass 
V:1
 A>"^Allegro marcia"G A>c [CG]2 [Cc]2 | [CF]2 [Cc]2 [CE]2 F>A | [DG]6 E>B | (A4 A2) z2 | %4
w: 1.~Bright- er are the sun- beams|day, O re- joice, heart|voice! Sweet- er|un- *|
w: 2.~Hear the mess- age from the|bough; Ro- bins sing, blue-|ring; Ev- ery|and *|
w: 3.~O, the hap- py spring- time|soul; Sha- dows go, lil-|blow; Je- sus|the *|
 A>G A>c [CG]2 [Cc]2 | [CF]2 [Cc]2 [CE]2 F>A | [EG]2 [EB]2 F>=E F>G | E6 E2 | %8
w: ing by the way, Tell- ing|quick- ’ning life of spring;|sun- beams tell out the sto-|the East-|
w: som tells us now Je- sus|umph- ant o’er the grave;|seek the Lord, though in sor-|the gar-|
w: ed spir- it whole; Love is|sing- ing in the heart;|hope’s bright morn is a- wak-|is pass-|
 [DF]2 [DE]2 [Dc]2 B>c | [CB]4 [CA]2 A>B | [DA]4 [DG]2 F>G | [CF]4 [CE]2 [CE]2 | %12
w: and glo- ry, And win-|gone— cold and hoar-|All hail our vic-|king. * *|
w: ness bor- row, For af-|night dawns the mor-|He com- eth forth|save. Hal- le-|
w: is break- ing, And Christ,|own ne’er for- sak-|Bids ev- ery fear|part. * *|
 [DF]2 [DE]2 [Dc]2 B>c | [CB]4 [CA]2 [EA]2 | [EG]2 [EB]2 [=DA]2 [DF]2 | E6 z2 || %16
w: ||||
w: lu- jah to our vic-|king! “Go your|way,” an- gels say;|O-|
w: ||||
"^Refrain" A>G A>c [CG]2 [Cc]2 | [CF]2 [Cc]2 [CE]2 F>A | [DG]6 E>B | [CA]6 z2 | %20
w: ||||
w: hill and val- ley, tid- ings|Sav- ior lives for us|day. * *||
w: ||||
 A>G A>c [CEB]2 [CEA]2 | [DAd]2 [DAd]2 [DA]2 [DAB]2 | [EAc]2 [CE]2 B>=A B>c | (C2 D2 C4) |] %24
w: ||||
w: ||||
w: ||||
V:2
 C2 C2 x4 | x6 C2 | x6 D2 | C6 x2 | C2 C2 x4 | x6 C2 | x4 =D2 D2 | E6 E2 | x6 D2 | x6 C2 | x6 D2 | %11
w: on this|and|buds|fold-|of the|Bright|ry Of|er joy|ter’s|y,|tor|
w: leaf- y|bells|bud|blos-|rose tri-|Oh,|row, From|den glad-|ter|row;|to|
w: of the|ies|makes|wound-|bloom- ing,|For|ing, Night|ing, day|His|ing,|de-|
 x8 | x6 D2 | x8 | x8 | E6 x2 || C2 C2 x4 | x6 C2 | x6 D2 | x8 | C2 C2 x4 | x8 | x4 [DG]2 [DG]2 | %23
w: ||||||||||||
w: |tor|||ver|bring; The|to-||||||
w: ||||||||||||
 A8 |] %24
w: |
w: |
w: |
V:3
 [A,,E,]2 [E,,E,]2 [A,,E,]2 [E,,E,]2 | [A,,E,]2 [E,,E,]2 [A,,E,]2 [E,,E,]2 | %2
 ([B,,E,]2 [E,,E,]2 [B,,E,]2) [E,,E,]2 | ([A,,E,]2 [E,,E,]2 [A,,E,]2) [E,,E,]2 | %4
 [A,,E,]2 [E,,E,]2 [A,,E,]2 [E,,E,]2 | [A,,E,]2 [E,,E,]2 [A,,E,]2 [A,,E,]2 | %6
 [B,,B,]2 [B,,G,]2 [B,,A,]2 [B,,A,]2 | (z2 B,,2 E,,2) E,2 | [B,,E,]2 [E,,E,]2 [G,,E,]2 [F,,E,]2 | %9
 ([A,,E,]2 [E,,E,]2) [A,,E,]2 [E,,E,]2 | ([B,,E,]2 [E,,E,]2) [B,,E,]2 [E,,E,]2 | %11
 ([A,,E,]2 [E,,E,]2) [A,,E,]2 [A,,E,]2 | [B,,E,]2 [E,,E,]2 [G,,E,]2 [E,,E,]2 | %13
 ([A,,E,]2 [E,,E,]2) [A,,E,]2 [C,A,]2 | [B,,B,]2 [B,,G,]2 [B,,F,]2 [B,,A,]2 | (E,2 D,2 C,2 B,,2) || %16
 [A,,E,]2 [E,,E,]2 [A,,E,]2 [E,,E,]2 | [A,,E,]2 [E,,E,]2 [A,,E,]2 [E,,E,]2 | %18
 ([B,,E,]2 [E,,E,]2 [B,,E,]2) [E,,E,]2 | ([A,,E,]2 [E,,E,]2 [A,,E,]2 [E,,E,]2) | %20
 [A,,E,]2 [A,,A,]2 [_G,,_G,]2 [G,,G,]2 | [F,,F,]2 [F,,F,]2 [_F,,_F,]2 [F,,F,]2 | %22
 [E,,E,]2 [A,,E,]2 [G,,E,]2 [E,,E,]2 | (E,2 F,2 E,4) |] %24
V:4
 x8 | x8 | x8 | x8 | x8 | x8 | x8 | ([E,G,]6 E,2) | x8 | x8 | x8 | x8 | x8 | x8 | x8 | G,6 x2 || %16
 x8 | x8 | x8 | x8 | x8 | x8 | x8 | A,,8 |] %24

